X: 25933
T: Maurice Duncan's Trip To Ballycastle
R: hornpipe
M: 4/4
K: Dmajor
|:FA FE D2dc|Bd Gd A2 DE|FD FA AB AG|F2 E2 E2 DE|
FA FE D2dc|Bd Gd A2 DE|FA Bd FA EF|1 D2 DE D2 DE:|2 D2 DE D2 dc||
|:B2 BA Bc dc|BA AB AF DE|FD FA AB AG|FE EF E2 dc|
B2 BA Bc dc|BA AB AF DE|FA Bd FA EF|1 D2 DE D2 dc:|2 D2 DE D2 DE||
|:FA DA FA DA|GA BA FA DE|FD FA AB AG|FE EF EF DE|
FA DA FA DA|GA BA FA DE|FA Bd FA EF|1 D2 DE D2 DE:|2 D2 DE D2 dc||
Bd Gd Bd Gd|Ad Fd Ad Fd|DE FA AB AG|FE EF E2 dc|
Bd Gd Bd Gd|Ad Fd Ad Fd|DE FA FA EF|D2 DE D2 dc|
Bd Gd Bd Gd|Ad Fd Ad Fd|DE FA AB AG|FE EF E2 DE|
FA EF DE FA|GA Bc dA Bd|Ad Fd GB AG|F2 D2 D4||

